X:77
T:Steyrer Tanz in G, nr. 39
C:traditionell
R:Steirer
A:Hallstatt, Salzkammergut
B:Corpus Musicae Popularis Austriacae (COMPA), 5.Band: J.M.Schmalnauer " Tanz Musik", Verlag Boehlau, Wien 1996
S:manuscript des Johann Michael Schmalnauer um 1820
N:im der quelle in G
Z:abc transcription Simon Wascher
F:http://simonwascher.info/TradArchiv/
M:3/4
L:1/8
K:G
V:1
%violino 1mo
dc |\
BgAffA | ca Tg2 Bd | dbcaac | cagdBd |\
BgAffA | ca Tg2 Bd | dbcaac | g4 :|
|: dc |\
BgAffA | caBggB | dbcaac | ec'dbbd |\
BgAffA | caBggB | dbcaac | g4 :|
V:2
%violino 2do
ba |\
gbfaad | ac' Tb2 gb | bd'ac'c'd | ac'bgdf |\
gbfaad | ac' Tb2 gb | bd'ac'c'd | b4 :|
|: ba|\
gbfaad | ac'dbbd | bd'ac'c'd | (c'e') d'2 d'b |\
gbfaad | ac'dbbd | bd'ac'c'd | b4 :|
